assets/icons/carriage/INFO.svg

<svg width="34" height="34" viewBox="0 0 34 34" fill="none" xmlns="http://www.w3.org/2000/svg">
<g clip-path="url(#clip0_136_12)">
<rect width="34" height="34" rx="17" fill="#414141"/>
<path d="M17.7059 9.84C17.0059 9.84 16.4159 9.62 15.9359 9.18C15.4759 8.72 15.2459 8.16 15.2459 7.5C15.2459 6.84 15.4759 6.29 15.9359 5.85C16.4159 5.41 17.0059 5.19 17.7059 5.19C18.4259 5.19 19.0159 5.41 19.4759 5.85C19.9559 6.29 20.1959 6.84 20.1959 7.5C20.1959 8.16 19.9559 8.72 19.4759 9.18C19.0159 9.62 18.4259 9.84 17.7059 9.84ZM11.7359 27V24.24H16.4159V15.87C16.4159 15.21 16.0959 14.88 15.4559 14.88H12.1559V12.12H16.0259C17.2659 12.12 18.1659 12.41 18.7259 12.99C19.3059 13.55 19.5959 14.45 19.5959 15.69V24.24H24.2759V27H11.7359Z" fill="white"/>
</g>
<defs>
<clipPath id="clip0_136_12">
<rect width="34" height="34" fill="white"/>
</clipPath>
</defs>
</svg>

<svg xmlns="http://www.w3.org/2000/svg" width="34" height="34" fill="none"><g clip-path="url(#a)"><rect width="34" height="34" fill="#414141" rx="17"/><path fill="#fff" d="M17.706 9.84c-.7 0-1.29-.22-1.77-.66-.46-.46-.69-1.02-.69-1.68 0-.66.23-1.21.69-1.65.48-.44 1.07-.66 1.77-.66.72 0 1.31.22 1.77.66.48.44.72.99.72 1.65 0 .66-.24 1.22-.72 1.68-.46.44-1.05.66-1.77.66ZM11.736 27v-2.76h4.68v-8.37c0-.66-.32-.99-.96-.99h-3.3v-2.76h3.87c1.24 0 2.14.29 2.7.87.58.56.87 1.46.87 2.7v8.55h4.68V27h-12.54Z"/></g><defs><clipPath id="a"><path fill="#fff" d="M0 0h34v34H0z"/></clipPath></defs></svg>
